packages/amis-editor/src/icons/other/modal-setting.svg

<?xml version="1.0" encoding="UTF-8"?>
<svg viewBox="0 0 16 16" version="1.1" xmlns="http://www.w3.org/2000/svg"
  xmlns:xlink="http://www.w3.org/1999/xlink">
  <g stroke="none" stroke-width="1" fill="none" fill-rule="evenodd">
    <g>
      <path
        d="M11.7000038,8.00067927 C11.8104607,8.00067927 11.9000038,8.09022232 11.9000038,8.20067927 L11.9001104,9.13320191 C12.4695769,9.22876767 12.971035,9.52487632 13.3293798,9.94642283 L14.1890431,9.45030624 C14.2655699,9.40612346 14.3591588,9.41826292 14.4218103,9.47386318 L14.4622482,9.52351132 L14.6622482,9.86992148 C14.7064309,9.9464483 14.6942915,10.0400372 14.6386912,10.1026887 L14.5890431,10.1431266 L13.7386908,10.6331882 C13.8428643,10.9020488 13.9,11.194352 13.9,11.5 C13.9,11.761783 13.8580871,12.0137767 13.7806058,12.2496367 L14.649001,12.7503062 C14.7446595,12.8055347 14.7774345,12.9278528 14.7222061,13.0235113 L14.5222061,13.3699215 C14.4669776,13.46558 14.3446595,13.498355 14.249001,13.4431266 L13.4067365,12.9577212 C13.0450608,13.4300872 12.511822,13.7641429 11.9001104,13.8667981 L11.9000038,14.8006793 C11.9000038,14.9111362 11.8104607,15.0006793 11.7000038,15.0006793 L11.3000038,15.0006793 C11.1895468,15.0006793 11.1000038,14.9111362 11.1000038,14.8006793 L11.0988887,13.8666299 C10.5086957,13.7673285 9.99161929,13.4526073 9.63130248,13.0061093 L8.87327542,13.4431266 C8.7967486,13.4873093 8.70315967,13.4751699 8.64050818,13.4195696 L8.60007034,13.3699215 L8.40007034,13.0235113 C8.35588756,12.9469845 8.36802702,12.8533956 8.42362729,12.7907441 L8.47327542,12.7503062 L9.23924537,12.3075443 C9.14909628,12.0551922 9.1,11.7833296 9.1,11.5 C9.1,11.1727902 9.16548128,10.8608744 9.28405456,10.5766418 L8.53323332,10.1431266 C8.43757479,10.0878981 8.40479976,9.96558 8.46002823,9.86992148 L8.66002823,9.52351132 C8.71525671,9.42785279 8.83757479,9.39507776 8.93323332,9.45030624 L9.71153467,9.899531 C10.0664546,9.50319112 10.5511881,9.22552208 11.0988887,9.13337008 L11.1000038,8.20067927 C11.1000038,8.09022232 11.1895468,8.00067927 11.3000038,8.00067927 L11.7000038,8.00067927 Z M12.5,1.1 C13.7702549,1.1 14.8100212,2.08683903 14.8944631,3.33568127 L14.9,3.5 L14.9,7.83202106 C14.9,7.94247801 14.8104569,8.03202106 14.7,8.03202106 L14.3,8.03202106 C14.1895431,8.03202106 14.1,7.94247801 14.1,7.83202106 L14.1,4.9 L1.899,4.9 L1.9,12.5 C1.9,13.3345636 2.53896152,14.0198898 3.35436739,14.0934613 L3.5,14.1 L7.80376154,14.1 C7.91421849,14.1 8.00376154,14.1895431 8.00376154,14.3 L8.00376154,14.7 C8.00376154,14.8104569 7.91421849,14.9 7.80376154,14.9 L3.5,14.9 C2.22974508,14.9 1.18997876,13.913161 1.10553687,12.6643187 L1.1,12.5 L1.1,3.5 C1.1,2.22974508 2.08683903,1.18997876 3.33568127,1.10553687 L3.5,1.1 L12.5,1.1 Z M11.058,9.962 L11.085,9.954 L11.051,9.964 L11.023,9.972 L11.006,9.977 L10.995,9.98 L10.9458366,9.99856923 L10.9458366,9.99856923 C10.9008146,10.0151992 10.8569423,10.0337028 10.8141175,10.0540528 C10.7869645,10.0670953 10.7669371,10.0772584 10.7471578,10.087825 C10.726476,10.098877 10.7062359,10.1102691 10.6862746,10.1220826 C10.6581305,10.1387294 10.6302129,10.1564361 10.6028985,10.1749651 C10.5913995,10.1827679 10.5801897,10.1905858 10.569086,10.1985423 C10.5488195,10.2130598 10.5287182,10.2281874 10.5089927,10.2437696 C10.4865667,10.2614864 10.4646681,10.2797542 10.4432764,10.2985843 L10.4269774,10.3131291 C10.2678759,10.4570584 10.1378485,10.6325307 10.0467595,10.8296818 L9.98589777,10.9814557 L9.954,11.086 L9.956,11.075 L9.951,11.094 L9.954,11.086 L9.948,11.107 L9.947,11.114 L9.93375928,11.1714812 L9.93375928,11.1714812 C9.926312,11.2072282 9.9201332,11.2428682 9.91515366,11.2788912 C9.91244722,11.2984267 9.91004535,11.318553 9.90802059,11.3387904 L9.90653868,11.3543674 L9.9,11.5 C9.9,11.5658836 9.90398208,11.6308371 9.91171869,11.694633 C9.9176063,11.7430725 9.92556772,11.7904245 9.93555836,11.8370235 L9.94983351,11.8977651 C10.0047514,12.1118559 10.1023783,12.3081299 10.2331164,12.4773658 L10.3372283,12.599079 L10.3686292,12.6313708 C10.3805326,12.6432743 10.3926227,12.654991 10.4048947,12.6665163 L10.3372283,12.599079 C10.3737848,12.6377404 10.4122485,12.6745796 10.452469,12.7094459 C10.4766534,12.7304086 10.5014065,12.7506072 10.5267589,12.7700638 C10.5397674,12.7800476 10.5529627,12.7898569 10.5663121,12.7994656 C10.5877853,12.8149289 10.6099528,12.8300641 10.6325107,12.8446472 L10.6904506,12.8803803 L10.6904506,12.8803803 C10.8154873,12.9538762 10.9514641,13.0108878 11.0953221,13.0483814 L11.0992708,13.0494051 L11.212398,13.0742219 C11.3056977,13.0911562 11.401816,13.1 11.5,13.1 C11.598184,13.1 11.6943023,13.0911562 11.787602,13.0742219 L11.8997414,13.0496595 C12.003065,13.0229442 12.1005177,12.9870554 12.193029,12.9425295 C12.2113165,12.9337242 12.2291957,12.9246953 12.2468785,12.9153447 C12.2731165,12.9014794 12.2992937,12.8866821 12.3249996,12.8711824 C12.3416964,12.8611082 12.3578002,12.8509952 12.3737077,12.8406067 C12.4025153,12.8218005 12.4308911,12.8019324 12.4585726,12.7811881 C12.4715732,12.7714495 12.4846625,12.7613247 12.4975883,12.7510037 C12.5225643,12.7310601 12.5469052,12.7104062 12.5706046,12.6890539 L12.6108006,12.651576 L12.6108006,12.651576 C12.7978193,12.4713401 12.9412637,12.2453048 13.0230953,11.991495 L13.0646564,11.8360204 C13.0779498,11.7738206 13.0876283,11.7102812 13.0934613,11.6456326 L13.1,11.5 L13.092,11.354 L13.0962027,11.3888969 C13.0952944,11.375654 13.0942249,11.3624553 13.0929963,11.3493029 L13.0855758,11.2842349 L13.0855758,11.2842349 C13.0819781,11.2574601 13.0775971,11.2302507 13.0725395,11.2032799 C13.0668244,11.172871 13.0604044,11.1433906 13.0531845,11.1142258 C13.0487752,11.09637 13.0438186,11.0777651 13.0385383,11.0592969 L13.0334762,11.0419651 C12.9561748,10.7821491 12.814026,10.5494603 12.6257909,10.363073 L12.57,10.313 L12.53,10.277 L12.522,10.27 L12.4687062,10.2264687 L12.4687062,10.2264687 C12.44285,10.2067721 12.4164095,10.1878674 12.3893868,10.1697643 C12.3729255,10.1587296 12.3558503,10.1477469 12.3385568,10.1370841 C12.3079829,10.1182425 12.2770516,10.100572 12.2454964,10.0839253 L12.2013738,10.0615169 L12.2013738,10.0615169 C12.1628964,10.0427276 12.1237638,10.0255193 12.0838495,10.0098684 L12.0613582,10.0012455 C12.0107437,9.98239447 11.9621265,9.96688515 11.9125634,9.95369543 L11.8997414,9.95034047 C11.7719713,9.91747761 11.6380267,9.9 11.5,9.9 C11.407745,9.9 11.3173137,9.90780792 11.2293308,9.92279899 L11.0992708,9.95059487 L11.0834998,9.9547485 L11.058,9.962 L11.044,9.966 L11.0364972,9.96816528 L11.0217253,9.97270755 L11.0217253,9.97270755 L11.012,9.975 L11.002,9.978 L11.006,9.977 L11.012,9.975 L11.023,9.972 L11.0364972,9.96816528 L11.0364972,9.96816528 L11.044,9.966 L11.058,9.962 Z M12.5,1.9 L3.5,1.9 C2.66543638,1.9 1.98011021,2.53896152 1.90653868,3.35436739 L1.9,3.5 L1.899,4.1 L14.1,4.1 L14.1,3.5 C14.1,2.66543638 13.4610385,1.98011021 12.6456326,1.90653868 L12.5,1.9 Z M3.99054266,2.6 C4.10099961,2.6 4.19054266,2.68954305 4.19054266,2.8 L4.19054266,3.2 C4.19054266,3.31045695 4.10099961,3.4 3.99054266,3.4 L3.4,3.4 C3.28954305,3.4 3.2,3.31045695 3.2,3.2 L3.2,2.8 C3.2,2.68954305 3.28954305,2.6 3.4,2.6 L3.99054266,2.6 Z M5.79054266,2.6 C5.90099961,2.6 5.99054266,2.68954305 5.99054266,2.8 L5.99054266,3.2 C5.99054266,3.31045695 5.90099961,3.4 5.79054266,3.4 L5.2,3.4 C5.08954305,3.4 5,3.31045695 5,3.2 L5,2.8 C5,2.68954305 5.08954305,2.6 5.2,2.6 L5.79054266,2.6 Z"
        fill="currentColor" fill-rule="nonzero"></path>
    </g>
  </g>
</svg>

<svg viewBox="0 0 16 16" xmlns="http://www.w3.org/2000/svg"><path d="M11.7 8c.11 0 .2.09.2.2v.933c.57.096 1.071.392 1.43.813l.859-.496a.2.2 0 0 1 .233.024l.04.05.2.346a.2.2 0 0 1-.023.233l-.05.04-.85.49a2.394 2.394 0 0 1 .042 1.617l.868.5a.2.2 0 0 1 .073.274l-.2.346a.2.2 0 0 1-.273.073l-.842-.485a2.399 2.399 0 0 1-1.507.909v.934a.2.2 0 0 1-.2.2h-.4a.2.2 0 0 1-.2-.2l-.001-.934a2.398 2.398 0 0 1-1.468-.86l-.758.436a.2.2 0 0 1-.232-.023l-.04-.05-.2-.346a.2.2 0 0 1 .023-.233l.05-.04.765-.443a2.396 2.396 0 0 1 .045-1.731l-.75-.434a.2.2 0 0 1-.074-.273l.2-.346a.2.2 0 0 1 .273-.074l.779.45c.354-.397.84-.674 1.387-.767l.001-.932c0-.11.09-.2.2-.2h.4Zm.8-6.9a2.4 2.4 0 0 1 2.394 2.236l.006.164v4.332a.2.2 0 0 1-.2.2h-.4a.2.2 0 0 1-.2-.2V4.9H1.899l.001 7.6a1.6 1.6 0 0 0 1.454 1.593l.146.007h4.304c.11 0 .2.09.2.2v.4a.2.2 0 0 1-.2.2H3.5a2.4 2.4 0 0 1-2.394-2.236L1.1 12.5v-9a2.4 2.4 0 0 1 2.236-2.394L3.5 1.1h9Zm-1.442 8.862.027-.008-.034.01-.028.008-.017.005-.011.003-.05.019a1.591 1.591 0 0 0-.502.3l-.016.014c-.16.144-.29.32-.38.517l-.061.151-.032.105.002-.011-.005.019.003-.008-.006.021-.001.007-.013.057a1.599 1.599 0 0 0-.026.168l-.001.015-.007.146a1.616 1.616 0 0 0 .036.337l.014.06c.055.215.152.411.283.58l.104.122.032.032.036.036-.068-.068a1.61 1.61 0 0 0 .296.246l.057.035c.125.074.261.13.405.168l.004.001.113.025a1.61 1.61 0 0 0 .576 0l.112-.024a1.594 1.594 0 0 0 .67-.36l.04-.038c.188-.18.331-.407.413-.66l.042-.156a1.5 1.5 0 0 0 .028-.19l.007-.146-.008-.146.004.035a1.61 1.61 0 0 0-.003-.04l-.007-.065a1.59 1.59 0 0 0-.047-.225l-.006-.017a1.598 1.598 0 0 0-.407-.679l-.056-.05-.04-.036-.008-.007-.053-.044a1.605 1.605 0 0 0-.224-.142l-.044-.022a1.592 1.592 0 0 0-.117-.052L12.06 10a1.485 1.485 0 0 0-.148-.047L11.9 9.95a1.603 1.603 0 0 0-.67-.027l-.13.028-.017.004-.025.007-.014.004-.008.002-.014.005-.01.002-.01.003.004-.001.006-.002.011-.003.013-.004.008-.002.014-.004ZM12.5 1.9h-9a1.6 1.6 0 0 0-1.593 1.454L1.9 3.5l-.001.6H14.1v-.6a1.6 1.6 0 0 0-1.454-1.593L12.5 1.9Zm-8.51.7a.2.2 0 0 1 .2.2v.4a.2.2 0 0 1-.2.2H3.4a.2.2 0 0 1-.2-.2v-.4c0-.11.09-.2.2-.2h.59Zm1.8 0a.2.2 0 0 1 .2.2v.4a.2.2 0 0 1-.2.2H5.2a.2.2 0 0 1-.2-.2v-.4c0-.11.09-.2.2-.2h.59Z" fill="currentColor"/></svg>
